X:487
T: "Der Tochter Wunsch"
N: Z1167
O: Europa, Mitteleuropa, Deutschland, Koeln
R: Liebes - Lied
M: 2/4
L: 1/16
K: E
B,2 | E2F2G2A2 | B4B4
c2ccc2c2 | B2B2B2
A2 | G4F4 | E4z4
E3FG2A2 | B2cBB2z2
e4fedc | B4z2
G2 | A3AA2BA | G4G2
G2 | A2A2A2BA | G4G4
A2A2A2BA | G2G2G2z2
B3BB2B2 | G4z2

